build/img/sprite/icon-sign-in.svg

<svg width="18" height="19" viewBox="0 0 18 19" fill="none" xmlns="http://www.w3.org/2000/svg">
<path fill-rule="evenodd" clip-rule="evenodd" d="M13 17.5H6V18.5H13C14.6569 18.5 16 17.1569 16 15.5L16 3.5C16 1.84315 14.6569 0.5 13 0.5H6V1.5L13 1.5C14.1046 1.5 15 2.39543 15 3.5L15 15.5C15 16.6046 14.1046 17.5 13 17.5ZM7.46775 13.0389L8.17157 13.7427L8.87868 13.0356L11.7071 10.2072C12.0976 9.81664 12.0976 9.18347 11.7071 8.79295L8.87868 5.96452L8.17157 5.25742L7.46446 5.96452L7.46344 5.96555L8.17054 6.67266L8.17157 6.67163L10.5 9.00006L2 9.00006V10.0001L10.5066 10.0001L7.46775 13.0389Z" fill="#586170"/>
</svg>

<svg width="18" height="19" fill="none" xmlns="http://www.w3.org/2000/svg"><path fill-rule="evenodd" clip-rule="evenodd" d="M13 17.5H6v1h7a3 3 0 003-3v-12a3 3 0 00-3-3H6v1h7a2 2 0 012 2v12a2 2 0 01-2 2zm-5.532-4.461l.704.704.707-.707 2.828-2.829a1 1 0 000-1.414L8.88 5.965l-.707-.708-.708.708.707.708v-.001L10.5 9H2v1h8.507l-3.04 3.039z" fill="#586170"/></svg>
